X: 6046
T: Cape Breton's Own
R: jig
M: 6/8
K: Fmajor
F/A/>B/|cFd BFc|Acf afc|Bce gfe|fag fed|
cFd BFc|Acf afc|Bce gfe|1 ,2,3 fcA F2:|4 fcA f2 e||
|:d>ed/d/ fed|ade fed|e^cA ABA|Aba gfe|
d2 e fed|ade fed|1 ^cBA bag|fd^c de/f/e:|2 aba gfe|fag fed||
cFd BFc|Acf afc|Bce gfe|fag fed|
cFd BFc|Acf afc|Bce gfe|1 fcA F2:|2 fcA F2||

